svgs/duotone/mailbox-flag-up.svg

<svg xmlns="http://www.w3.org/2000/svg" viewBox="0 0 576 512"><!--! Font Awesome Pro 6.6.0 by @fontawesome - https://fontawesome.com License - https://fontawesome.com/license (Commercial License) Copyright 2024 Fonticons, Inc. --><path class="fa-secondary" style="fill:var(--fa-secondary-color,inherit);opacity:var(--fa-secondary-opacity,.4);" d="M144 64c79.5 0 144 64.5 144 144l0 176c0 35.3-28.7 64-64 64l288 0c35.3 0 64-28.7 64-64l0-176c0-56.5-32.6-105.5-80-129l0 17c0 8.8-7.2 16-16 16l-64 0 0 96c0 8.8-7.2 16-16 16s-16-7.2-16-16l0-112 0-32L144 64z"/><path class="fa-primary" style="fill:var(--fa-primary-color,inherit);opacity:var(--fa-primary-opacity,1);" d="M400 224c-8.8 0-16-7.2-16-16l0-112 0-48c0-8.8 7.2-16 16-16l80 0c8.8 0 16 7.2 16 16l0 48c0 8.8-7.2 16-16 16l-64 0 0 96c0 8.8-7.2 16-16 16zM0 208C0 128.5 64.5 64 144 64s144 64.5 144 144l0 176c0 35.3-28.7 64-64 64L64 448c-35.3 0-64-28.7-64-64L0 208zm64 0c0 8.8 7.2 16 16 16l128 0c8.8 0 16-7.2 16-16s-7.2-16-16-16L80 192c-8.8 0-16 7.2-16 16z"/></svg>

<svg xmlns="http://www.w3.org/2000/svg" viewBox="0 0 576 512"><!--! Font Awesome Pro 6.4.2 by @fontawesome - https://fontawesome.com License - https://fontawesome.com/license (Commercial License) Copyright 2023 Fonticons, Inc. --><path class="fa-primary" style="fill:var(--fa-primary-color,inherit);opacity:var(--fa-primary-opacity,1);" d="M400 224c-8.8 0-16-7.2-16-16V96 48c0-8.8 7.2-16 16-16h80c8.8 0 16 7.2 16 16V96c0 8.8-7.2 16-16 16H416v96c0 8.8-7.2 16-16 16zM0 208C0 128.5 64.5 64 144 64s144 64.5 144 144V384c0 35.3-28.7 64-64 64H64c-35.3 0-64-28.7-64-64V208zm64 0c0 8.8 7.2 16 16 16H208c8.8 0 16-7.2 16-16s-7.2-16-16-16H80c-8.8 0-16 7.2-16 16z"/><path class="fa-secondary" style="fill:var(--fa-secondary-color,inherit);opacity:var(--fa-secondary-opacity,.4);" d="M400 224c-8.8 0-16-7.2-16-16V96 64H144c79.5 0 144 64.5 144 144V384c0 35.3-28.7 64-64 64H512c35.3 0 64-28.7 64-64V208c0-56.5-32.6-105.5-80-129V96c0 8.8-7.2 16-16 16H416v96c0 8.8-7.2 16-16 16z"/></svg>
